X: 1
T: Zillertaler Laendler
O: Austria
Z: Deborah Jones VIFD 2
F: http://www.youtube.com/watch?v=_dqwz_kAseY
F: http://www.youtube.com/watch?v=8fYW_tAEZPI
M: 3/4
L: 1/8
%Q: 1/4=150
K: G
%%indent 300
"^I"[|] DEF |"G" [B,6D6G6] |[D6G6B6] | "D7" [F2c2d2] z[cdf] [c2d2f2] |"G" [B2d2g2] z ||
% - - - - - - - - - -
P: Basic melody
"^A"|: z[G2B2] |\
"G" [G4B] [B2-d2-] | [B2d2] [A2c2] [G2B2] | "D7"[F6-A6-] | [F2A2] z2 [A2c2] |\
 [A4c4] [c2-e2-] | [c2e2] [B2d2] [A2c2] | "G"[G6-B6-] | [G2B2] z2 [G2B2] |\
 [B4d4] [f2-a2-] | [f2a2] ag fe |
 [1,3 "D7"[c6g6] | [c6f6] | [A4c4] [e2-g2-] | [e2g2] gf ed | "G" [d6f6] | [B2e2] z :|\
 [2,4 "C" [d6f6] | [c6e6] | "D7"[F2c2d2] z2 f2 | fe dc BA | "G" G2 z2 "D7" [F2c2d2]|\
 "G" [G2B2d2g2] z :|
"^B"|: ggg |\
"C"g2 ec eg | g2 ec eg | "G" g2 dB dg | g2 dB dg | "D7"f2 dc A2 | f2 dc A2 |\
[1,3 "G"e2 d^c de | d3 :|
[2,4 "G" G2 z2 "D7"[F2c2d2] | "G" [G2B2d2g2] z :|\
"^C"|: DGA |\
"G"[G6-B6-] | [G3B3] B AG | "D7" [F6-A6-] |\
 [F3A3] FAB | [A6-c6-] | [A2c2] zAGF | "G"[G6-B6-] |
 [G3B3] DBc | [B6-d6-] | [B2d2] zdcB | "C"[c6-e6-] |\
 [c2e2] z [eg] [eg] [eg] | "D7"[c2f2] z f f2 |\
 fe dc BA | "G" G2 z2 "D7" [F2c2d2] | "G" [G2B2d2g2] z4 :|
% - - - - - - - - - -
P: With "doodles"
"^A"|: z[G2B2] |\
"G" [G3B3] [Bd] [B2-d2-] | [B2d2] [A2c2] [G2B2] | "D7"[F2A2] ac' fa | df Ad FA |\
 [A3c3] [ce] [c2-e2-] | [c2e2] [B2d2] [A2c2] | "G"[G2B2] bd' gb | dg Bd GB |\
 [B3d3] [fa] [f2-a2-] |
 [fa]a ag fe |\
 [1,3 "D7"[c6g6] | [c6f6] | [A3c3] [eg] [e2-g2-] | [eg]g gf ed | "G" [d6f6] | [B2e2] z :|\
 [2,4 "C" [d6f6] | [c6e6] | "D7"[F2c2d2] z f f2 | fe dc BA | "G" G2 z2 "D7" [F2c2d2]|\
 "G" [G2B2d2g2] z :|
"^B"|: ggg |\
"C"ge cA ce | ge cA ce | "G" gd BG Bd | gd BG Bd | "D7"fd AF Ad | fd AF Ad |
[1,3 "G"ed d^c de | d3 g gg :|[2,4 "G" G2 z2 "D7"[F2c2d2] | "G" [G2B2d2g2] z :|\
"^C"|: DGA |\
"G"[G3B3] [Bd] [B2d2] | [B3d3] BAG | "D7"[F3A3] [Ac] [A2c2] | [A3c3] GAB |\
[F3c3] [ce] [c2e2] |
[c3e3] cBA | "G"[G3B3] [Bd] [B2d2] | [B3d3] GBc |\
[B6-d6-] | [B3d3] dcB | "C"[c6-e6-] | [c2e2] z [eg] [eg][eg] |\
"D7" [c2f2] z f f2 | fe dc BA | "G" G2 z2 "D7" [F2c2d2] | "G" [G2B2d2g2] z4 :|
% - - - - - - - - - -
%%begintext
%% Often played with the parts repeated the first time but not the second:
%%   ||: A1A2 :||: B1B2 :||: C1C2 :|| A1A2 B1B2 C1C2 ||
%%endtext
